X: 13
T: Rose In The Heather, The
Z: Andy Holbert
S: https://thesession.org/tunes/447#setting54129
R: jig
M: 6/8
L: 1/8
K: Dmaj
|:D3 FED|B,DF BAF|ABd e/f/ge|fdB AFE|
FAF EFE|DFA ABd|edB BAF|1 EDC D2A,:|2 EDC Deg||
|:fdB ABd|faa afd|g3 fed|cde efg|
fdB ABd|faa afa|a/b/af f/g/fe|1 fdc deg:|2 fdB AFE||
|:F3 D3|A,3D3|ABA G3|FED CDE|
F3 DFD|A,3D3|GAG FED|CDE D3:|
E3 F3|G3 A3|GAB AGF|GFE FED|
E3 FEF|G3 A3|GAB AGF|GFE FED|
E2E FEF|G3 A3|GAB AGF|GFE FED|
E3 F3|G3 A3|GAB ABc|Bcd cde||

%-------------------- TUNE SEPARATOR --------------------%

